material/.icons/material/bus-school.svg

<svg xmlns="http://www.w3.org/2000/svg" viewBox="0 0 24 24"><path d="M3 6c-1.11 0-2 .89-2 2v7h2a3 3 0 003 3 3 3 0 003-3h6a3 3 0 003 3 3 3 0 003-3h2v-3c0-1.11-.89-2-2-2h-2V8c0-1.11-.89-2-2-2H3m10.5 1.5h4V10h-4V7.5m-11 0h4V10h-4V7.5m5.5 0h4V10H8V7.5m-2 6A1.5 1.5 0 017.5 15 1.5 1.5 0 016 16.5 1.5 1.5 0 014.5 15 1.5 1.5 0 016 13.5m12 0a1.5 1.5 0 011.5 1.5 1.5 1.5 0 01-1.5 1.5 1.5 1.5 0 01-1.5-1.5 1.5 1.5 0 011.5-1.5z"/></svg>

<?xml version="1.0" encoding="UTF-8"?><!DOCTYPE svg PUBLIC "-//W3C//DTD SVG 1.1//EN" "http://www.w3.org/Graphics/SVG/1.1/DTD/svg11.dtd"><svg xmlns="http://www.w3.org/2000/svg" xmlns:xlink="http://www.w3.org/1999/xlink" version="1.1" id="mdi-bus-school" width="24" height="24" viewBox="0 0 24 24"><path d="M3,6C1.89,6 1,6.89 1,8V15H3A3,3 0 0,0 6,18A3,3 0 0,0 9,15H15A3,3 0 0,0 18,18A3,3 0 0,0 21,15H23V12C23,10.89 22.11,10 21,10H19V8C19,6.89 18.11,6 17,6H3M13.5,7.5H17.5V10H13.5V7.5M2.5,7.5H6.5V10H2.5V7.5M8,7.5H12V10H8V7.5M6,13.5A1.5,1.5 0 0,1 7.5,15A1.5,1.5 0 0,1 6,16.5A1.5,1.5 0 0,1 4.5,15A1.5,1.5 0 0,1 6,13.5M18,13.5A1.5,1.5 0 0,1 19.5,15A1.5,1.5 0 0,1 18,16.5A1.5,1.5 0 0,1 16.5,15A1.5,1.5 0 0,1 18,13.5Z" /></svg>
